X: 1
T: Jockey Lay Up In The Hay Loft
M: 9/8
L: 1/8
R: slip jig
K: Gmaj
GBA GBG F2D|GBA G2B cAF|GBA GBG F2D|=FGA {g}=f2d {f}ecA:|
|:B/c/dB AcA {c}B2G|B/c/dB Adc AG^F|Gge {g}fdc B2G|=FGA {g}=f2d {f}ecA:|
